app/dist/common/images/kulr-technology.svg

<svg height="18" viewBox="0 0 18 18" width="18" xmlns="http://www.w3.org/2000/svg"><path d="m0 0h18v18h-18z" fill="#fff"/><path d="m7 6.5v5h1v-1.22l.86-.95 1.39 2.17h1.3l-1.95-2.98 1.8-2.02h-1.5l-1.9 2.34v-2.34z"/><path d="m5 6.5h-1v7.5h9.44c.3 0 .56-.24.56-.53v-9.47h-7v1h6v8h-8z"/><path d="m4 5.5h1.5v-1.5h-.9c-.33 0-.6.28-.6.63z" fill="#2a9ad1"/></svg>

<!-- by TradingView --><svg xmlns="http://www.w3.org/2000/svg" width="18" height="18" viewBox="0 0 18 18"><path fill="#fff" d="M0 0h18v18H0z"/><path d="M7 6.5v5h1v-1.22l.86-.95 1.39 2.17h1.3L9.6 8.52l1.8-2.02H9.9L8 8.84V6.5H7z"/><path d="M5 6.5H4V14h9.44c.3 0 .56-.24.56-.53V4H7v1h6v8H5V6.5z"/><path d="M4 5.5h1.5V4h-.9c-.33 0-.6.28-.6.63v.87z" fill="#2A9AD1"/></svg>
